X:1
T:Title
%%score { ( 1 3 4 ) | ( 2 5 6 ) }
L:1/8
M:3/4
K:D
V:1 treble nm="Grand Piano"
V:3 treble 
V:4 treble 
V:2 bass 
V:5 bass 
V:6 bass 
V:1
 z2 z2[Q:1/4=100] [FA]>[FA] | [Fd]3 [Fd] [Ac]>[GB] | [FA]2 F2 F>F | [CE]3 [CE] [CA]>[CG] | %4
[M:2/4] [DF]4 |[M:1/4] [FA]>[FA] |[M:3/4] [Fd]3 [Fd] [Ac]>[GB] | [FA]2 F2 F>F | E3 A ^G>B | %9
[M:2/4] [CA]4 |[M:1/4] [CE]>[DF] |[M:3/4] [EG]3 [EG] [DF]>[CE] |[M:7/8] [DF]>[EG] [FA]3 [CE]>[DF] | %13
[M:3/4] [EG]3 [EG] [FA]>[EG] |[M:2/4] [DF]4 |[M:1/4] [FA]>[FA] |[M:3/4] B3 B B>c | e2 d2 c>B | %18
 A3 d [Ec]>[Ge] |[M:2/4] [Fd]4 |[M:4/4] z2 d6 | z2 A6 | z2 E6 | z2 [DF]6 | z2 B6 | z2 A6 | %26
 [FA]>[FA] B2 e2 d2 |[M:7/8] E z [Fd]- [Fd]- [Fd]3- | [Fd]2 z z z z2 |] %29
V:2
 z2 z2 [D,D]>[D,D] | [D,A,]3 [D,A,] [D,A,]>[D,D] | [D,D]2 [D,A,D]2 [D,A,D]>[D,A,D] | %3
 [A,,A,]3 [A,,A,] [A,,A,]>[A,,A,] |[M:2/4] [D,A,]4 |[M:1/4] [D,D]>[D,D] | %6
[M:3/4] [D,A,]3 [D,A,] [D,A,]>[D,D] | [D,D]2 [D,A,D]2 [D,A,D]>[D,A,D] | %8
 [E,A,C]3 [E,A,C] [E,B,]>[E,^G,D] |[M:2/4] [A,,A,]4 |[M:1/4] [A,,A,]>[A,,A,] | %11
[M:3/4] [A,,A,]3 [A,,A,] [A,,A,]>[A,,A,] |[M:7/8] [D,A,]2 [D,A,]3 [A,,A,]>[A,,A,] | %13
[M:3/4] [A,,A,]3 [A,,A,] [A,,A,]>[A,,A,] |[M:2/4] [D,A,]4 |[M:1/4] [D,D]>[D,D] | %16
[M:3/4][K:treble] [G,DG]3 [G,DG] [G,DG]>[G,CG] | [G,B,G]2 [G,B,G]2 [G,B,G]>[G,DG] | %18
 [A,DF]3 [A,F][K:bass] [A,,A,]>[A,,A,] |[M:2/4] [D,A,]4 | %20
[M:4/4][K:treble] z2 B6[K:bass][K:treble] | z2 F6[K:bass] | z2 C6[K:bass] | A,,>A,, D,2 D,>D, D,2 | %24
 z2 G6 | z2 F6[K:bass] | [D,D]>[D,D][K:treble] [G,DG]2 [G,B,G]2 [A,F]2 | %27
[M:7/8][K:bass] [A,,A,]2 [D,A,]2 D,>D,D,- | D,2 z z z z2 |] %29
V:3
 x6 | x6 | x6 | x6 |[M:2/4] x4 |[M:1/4] x2 |[M:3/4] x6 | x6 | x6 |[M:2/4] x4 |[M:1/4] x2 | %11
[M:3/4] x6 |[M:7/8] x7 |[M:3/4] x6 |[M:2/4] x4 |[M:1/4] x2 |[M:3/4] x6 | x6 | x6 |[M:2/4] x4 | %20
[M:4/4] (3ABc z2 D>D z z/ d/ | c>B z2 D>D D2 | (3AGF z2 A,>A, A,>[A,CA] | %23
 [A,CG]>[A,CE] A,2 A,>A, A,2 | (3FGA z2 D>D z z/ d/ | c>B z z/ D/ D>D D2 | x8 | %27
[M:7/8] c-[Gc] z2 A,>A,A,- | A,2 z z z z2 |] %29
V:4
 x6 | x6 | x6 | x6 |[M:2/4] x4 |[M:1/4] x2 |[M:3/4] x6 | x6 | x6 |[M:2/4] x4 |[M:1/4] x2 | %11
[M:3/4] x6 |[M:7/8] x7 |[M:3/4] x6 |[M:2/4] x4 |[M:1/4] x2 |[M:3/4] x6 | x6 | x6 |[M:2/4] x4 | %20
[M:4/4] z4 z2 D2 | x8 | x8 | x8 | z4 z2 D2 | x8 | x8 |[M:7/8] x7 | x7 |] %29
V:5
 x6 | x6 | x6 | x6 |[M:2/4] x4 |[M:1/4] x2 |[M:3/4] x6 | x6 | x6 |[M:2/4] x4 |[M:1/4] x2 | %11
[M:3/4] x6 |[M:7/8] x7 |[M:3/4] x6 |[M:2/4] x4 |[M:1/4] x2 |[M:3/4][K:treble] x6 | x6 | %18
 x4[K:bass] x2 |[M:2/4] x4 |[M:4/4][K:treble] (3FGA z2[K:bass] D,>D, z z/[K:treble] B/ | %21
 A>G z2[K:bass] D,>D, D,2 | (3FED z2[K:bass] A,,>A,, A,,>A,, | x8 | (3DEF z2 G,>G, z z/ B/ | %25
 A>G z z/[K:bass] D,/ D,>D, D,2 | x2[K:treble] x6 |[M:7/8][K:bass] x7 | x7 |] %29
V:6
 x6 | x6 | x6 | x6 |[M:2/4] x4 |[M:1/4] x2 |[M:3/4] x6 | x6 | x6 |[M:2/4] x4 |[M:1/4] x2 | %11
[M:3/4] x6 |[M:7/8] x7 |[M:3/4] x6 |[M:2/4] x4 |[M:1/4] x2 |[M:3/4][K:treble] x6 | x6 | %18
 x4[K:bass] x2 |[M:2/4] x4 |[M:4/4][K:treble] z4[K:bass] z2 D,2[K:treble] | x4[K:bass] x4 | %22
 x4[K:bass] x4 | x8 | z4 z2 G,2 | x7/2[K:bass] x9/2 | x2[K:treble] x6 |[M:7/8][K:bass] x7 | x7 |] %29

